Origami/22x22/apps/securecrt.svg

<svg width="22" height="22" version="1" xmlns="http://www.w3.org/2000/svg">
 <path d="m1 19v0.5c0 0.554 0.446 1 1 1h18c0.554 0 1-0.446 1-1v-0.5c0 0.554-0.446 1-1 1h-18c-0.554 0-1-0.446-1-1z" style="opacity:.2"/>
 <rect x="1" y="2" width="20" height="18" rx="1" ry="1" style="fill:#4f4f4f"/>
 <path d="m2 2c-0.554 0-1 0.446-1 1v0.5c0-0.554 0.446-1 1-1h18c0.554 0 1 0.446 1 1v-0.5c0-0.554-0.446-1-1-1z" style="fill:#ffffff;opacity:.1"/>
 <path d="m5 4.5v1h-0.5c-0.831 0-1.5 0.669-1.5 1.5s0.669 1.5 1.5 1.5h0.5v1h-1.9082c0.206 0.582 0.754 1 1.4082 1h0.5v1h1v-1h0.5c0.831 0 1.5-0.669 1.5-1.5s-0.669-1.5-1.5-1.5h-0.5v-1h1.9082c-0.206-0.582-0.754-1-1.408-1h-0.5v-1h-1zm-0.5 2h0.5v1h-0.5c-0.277 0-0.5-0.223-0.5-0.5s0.223-0.5 0.5-0.5zm1.5 2h0.5c0.277 0 0.5 0.223 0.5 0.5s-0.2233 0.513-0.5 0.5h-0.5zm4 2v1h6v-1z" style="opacity:.2"/>
 <path d="m5 4v1h-0.5c-0.831 0-1.5 0.669-1.5 1.5s0.669 1.5 1.5 1.5h0.5v1h-1.9082c0.206 0.582 0.754 1 1.4082 1h0.5v1h1v-1h0.5c0.831 0 1.5-0.669 1.5-1.5s-0.669-1.5-1.5-1.5h-0.5v-1h1.9082c-0.206-0.582-0.754-1-1.408-1h-0.5v-1h-1zm-0.5 2h0.5v1h-0.5c-0.277 0-0.5-0.223-0.5-0.5s0.223-0.5 0.5-0.5zm1.5 2h0.5c0.277 0 0.5 0.223 0.5 0.5s-0.2233 0.513-0.5 0.5h-0.5zm4 2v1h6v-1z" style="fill:#ffffff"/>
 <circle cx="16" cy="16" r="6" style="fill:#bb46da"/>
 <path d="m13 13h0.5c3.0376 0 5.5 2.4624 5.5 5.5v0.5h-0.5c-0.273 0-0.5-0.225-0.5-0.5 0-2.485-2.015-4.5-4.5-4.5-0.273 0-0.5-0.225-0.5-0.5z" style="fill:#ffffff"/>
 <path d="m13 15h0.5c1.933 0 3.5 1.567 3.5 3.5v0.5h-0.5c-0.273 0-0.5-0.225-0.5-0.5 0-1.381-1.119-2.5-2.5-2.5-0.273 0-0.5-0.225-0.5-0.5z" style="fill:#ffffff"/>
 <path d="m14 17c0.5523 0 1 0.44772 1 1s-0.44772 1-1 1-1-0.44772-1-1 0.44772-1 1-1z" style="fill:#ffffff"/>
</svg>

<svg xmlns="http://www.w3.org/2000/svg" width="22" height="22" version="1">
 <path style="opacity:0.2" d="m 1,19 v 0.5 c 0,0.554 0.446,1 1,1 h 18 c 0.554,0 1,-0.446 1,-1 V 19 c 0,0.554 -0.446,1 -1,1 H 2 C 1.446,20 1,19.554 1,19 Z"/>
 <rect style="fill:#4f4f4f" width="20" height="18" x="1" y="2" rx="1" ry="1"/>
 <path style="opacity:0.1;fill:#ffffff" d="M 2,2 C 1.446,2 1,2.446 1,3 v 0.5 c 0,-0.554 0.446,-1 1,-1 h 18 c 0.554,0 1,0.446 1,1 V 3 C 21,2.446 20.554,2 20,2 Z"/>
 <path style="opacity:0.2" d="m 5,4.5 v 1 H 4.5 C 3.669,5.5 3,6.169 3,7 3,7.831 3.669,8.5 4.5,8.5 H 5 v 1 H 3.0918 c 0.206,0.582 0.754,1 1.4082,1 H 5 v 1 h 1 v -1 H 6.5 C 7.331,10.5 8,9.831 8,9 8,8.169 7.331,7.5 6.5,7.5 H 6 v -1 h 1.9082 c -0.206,-0.582 -0.754,-1 -1.408,-1 h -0.5 v -1 h -1 z m -0.5,2 H 5 v 1 H 4.5 C 4.223,7.5 4,7.277 4,7 4,6.723 4.223,6.5 4.5,6.5 Z M 6,8.5 H 6.5 C 6.777,8.5 7,8.723 7,9 7,9.277 6.7767,9.513 6.5,9.5 H 6 Z m 4,2 v 1 h 6 v -1 z"/>
 <path style="fill:#ffffff" d="M 5,4 V 5 H 4.5 C 3.669,5 3,5.669 3,6.5 3,7.331 3.669,8 4.5,8 H 5 V 9 H 3.0918 c 0.206,0.582 0.754,1 1.4082,1 H 5 v 1 H 6 V 10 H 6.5 C 7.331,10 8,9.331 8,8.5 8,7.669 7.331,7 6.5,7 H 6 V 6 H 7.9082 C 7.7022,5.418 7.1542,5 6.5002,5 h -0.5 V 4 h -1 z M 4.5,6 H 5 V 7 H 4.5 C 4.223,7 4,6.777 4,6.5 4,6.223 4.223,6 4.5,6 Z M 6,8 H 6.5 C 6.777,8 7,8.223 7,8.5 7,8.777 6.7767,9.013 6.5,9 H 6 Z m 4,2 v 1 h 6 v -1 z"/>
 <circle style="fill:#bb46da" cx="16" cy="16" r="6"/>
 <path style="fill:#ffffff" d="m 13,13 h 0.5 c 3.0376,0 5.5,2.4624 5.5,5.5 V 19 H 18.5 C 18.227,19 18,18.775 18,18.5 18,16.015 15.985,14 13.5,14 13.227,14 13,13.775 13,13.5 Z"/>
 <path style="fill:#ffffff" d="m 13,15 h 0.5 c 1.933,0 3.5,1.567 3.5,3.5 V 19 H 16.5 C 16.227,19 16,18.775 16,18.5 16,17.119 14.881,16 13.5,16 13.227,16 13,15.775 13,15.5 Z"/>
 <path style="fill:#ffffff" d="m 14,17 c 0.5523,0 1,0.44772 1,1 0,0.55228 -0.44772,1 -1,1 -0.55228,0 -1,-0.44772 -1,-1 0,-0.55228 0.44772,-1 1,-1 z"/>
</svg>
